packages/core/src/svgs/tokens/branded/CVC.svg

<svg width="24" height="24" viewBox="0 0 24 24" fill="none" xmlns="http://www.w3.org/2000/svg">
<path d="M13.7688 20.125C16.925 20.125 19.7311 17.5875 20.1249 14.5438V14.5H22C21.7989 16.547 20.8462 18.4467 19.3259 19.832C17.8054 21.2173 15.8254 21.9897 13.7688 21.9999H10.2688C5.70624 21.9999 2 18.3 2 13.75V10.25C2 5.7 5.71248 2 10.2688 2H13.7688C15.8254 2.01027 17.8054 2.7827 19.3259 4.16798C20.8462 5.55326 21.7989 7.45302 22 9.50001H20.1249C19.7311 6.45625 16.925 3.875 13.7688 3.875H10.2688C8.58719 3.90993 6.98393 4.59223 5.7929 5.77977C4.60186 6.9673 3.91486 8.56855 3.87499 10.25V13.75C3.87499 17.1625 6.84374 20.125 10.2688 20.125H13.7688ZM11.9999 8.24999C13.0313 8.24999 13.8749 9.1312 13.8749 10.2187C13.8749 10.9812 13.4625 11.6438 12.8624 11.9687L13.5563 15.1249H10.4438L11.1375 11.9687C10.8272 11.7948 10.5693 11.5405 10.3913 11.2327C10.2131 10.9247 10.121 10.5745 10.125 10.2187C10.1132 9.70914 10.3041 9.21579 10.6555 8.84677C11.007 8.4777 11.4905 8.26309 11.9999 8.24999Z" fill="#FF6B4D"/>
</svg>

<svg xmlns="http://www.w3.org/2000/svg" width="24" height="24" fill="none" viewBox="0 0 24 24">
    <path fill="#FF6B4D" d="M13.769 20.125c3.156 0 5.962-2.538 6.356-5.581V14.5H22a8.313 8.313 0 0 1-8.231 7.5h-3.5C5.706 22 2 18.3 2 13.75v-3.5C2 5.7 5.712 2 10.269 2h3.5A8.313 8.313 0 0 1 22 9.5h-1.875c-.394-3.044-3.2-5.625-6.356-5.625h-3.5a6.53 6.53 0 0 0-6.394 6.375v3.5c0 3.413 2.969 6.375 6.394 6.375zM11.999 8.25c1.032 0 1.876.881 1.876 1.969 0 .762-.412 1.425-1.013 1.75l.694 3.156h-3.112l.693-3.156a1.98 1.98 0 0 1-1.012-1.75A1.925 1.925 0 0 1 12 8.25"/>
</svg>
